TV/Source/QVC HD.svg

<svg height="292.80002pt" viewBox="0 0 414.48258 292.80002" width="414.48257pt" xmlns="http://www.w3.org/2000/svg"><g transform="matrix(10.529485 0 0 10.529485 -4618.8502 -4035.8661)"><path d="m461.1587 404.48976-7.5475-1.22875.001.001 3.30375 4.37125 2.62 3.46625 4.27-3.25375-2.6475-3.35625z" fill="#f6988d"/><path d="m0 0c .716.173 1.415.42 2.072.732l-2.362 3.125-.281.371z" fill="#b95858" transform="matrix(1.25 0 0 -1.25 454.29345 408.54501)"/><g fill="#c95759"><path d="m0 0-.179.138-.125.097-.105-.121c-.181-.212-.399-.315-.666-.315-.245 0-.44.074-.599.227-.158.156-.235.343-.235.572 0 .149.036.286.107.409.069.118.164.213.294.287.13.071.266.108.418.108.139 0 .267-.029.382-.084s.212-.135.293-.242l.104-.134.132.104.179.136.128.099-.094.132c-.121.169-.283.307-.478.404-.197.096-.408.142-.649.142-.393 0-.725-.128-.989-.385-.266-.26-.399-.581-.399-.957 0-.357.111-.666.33-.916.256-.301.615-.452 1.061-.452.235 0 .444.045.637.135.193.088.356.215.484.381l.103.132z" transform="matrix(1.25 0 0 -1.25 456.15695 396.95238)"/><path d="m0 0c .435 0 .79-.355.79-.793 0-.437-.355-.792-.79-.792s-.788.355-.788.792c0 .438.353.793.788.793m1.017-1.682c.215.246.336.561.336.889 0 .747-.606 1.357-1.353 1.357-.746 0-1.353-.61-1.353-1.357 0-.749.607-1.356 1.353-1.356.201 0 .397.047.578.134l.195-.247h.705z" transform="matrix(1.25 0 0 -1.25 447.94895 395.20776)"/><path d="m0 0-.662-1.635-.674 1.635h-.607l1.132-2.713h.287l1.133 2.713z" transform="matrix(1.25 0 0 -1.25 452.20195 394.57388)"/></g><path d="m0 0-5.95.967c-.552-.166-1.137-.259-1.743-.259-3.287 0-5.958 2.679-5.958 5.978 0 3.302 2.671 5.986 5.958 5.986 3.291 0 5.964-2.684 5.964-5.986 0-1.307-.42-2.514-1.13-3.499l3.75-2.002c1.052 1.627 1.633 3.531 1.633 5.501 0 5.644-4.583 10.245-10.217 10.245-5.633 0-10.215-4.601-10.215-10.245 0-5.646 4.582-10.236 10.215-10.236 1.513 0 3.065.378 4.435 1.036l3.245 2.496z" fill="#eb5d5e" transform="matrix(1.25 0 0 -1.25 461.0437 404.45563)"/><path d="m0 0 .565-4.237c.098.024.196.048.293.075.628.171 1.24.398 1.821.674z" fill="#c05255" transform="matrix(1.25 0 0 -1.25 453.60107 403.24863)"/><path d="m0 0 4.748-6.282 3.422 2.607-2.121 2.69z" fill="#f39e9f" transform="matrix(1.25 0 0 -1.25 453.60195 403.24388)"/></g><g fill="#fff" transform="translate(-115.92588 -.000001)"><path d="m411.24908 103.31328h13.17572v24.85342h25.50029v-24.85342h13.27785v61.82714h-13.27785v-24.81938h-25.50029v24.81938h-13.17572z" fill="#fff"/><path d="m473.80889 103.31328c14.25677.0102 30.64385-1.43106 43.18639 5.68563 13.20889 7.49477 16.84432 26.13187 10.09457 39.40799-5.08233 9.99647-15.89854 16.35864-26.96426 16.61434-8.76607.20256-17.38124.1035-26.3167.11916m12.93739-49.46855v37.56952c7.2858.00013 15.56303.85271 21.89076-2.96199 11.12793-6.7085 10.83483-25.96632-.62985-32.12219-6.09332-3.27177-14.09419-2.49399-21.26091-2.48534z" fill="#fff"/></g></svg>

<?xml version="1.0" encoding="UTF-8" standalone="no"?>
<svg
   xmlns:dc="http://purl.org/dc/elements/1.1/"
   xmlns:cc="http://creativecommons.org/ns#"
   xmlns:rdf="http://www.w3.org/1999/02/22-rdf-syntax-ns#"
   xmlns:svg="http://www.w3.org/2000/svg"
   xmlns="http://www.w3.org/2000/svg"
   xmlns:sodipodi="http://sodipodi.sourceforge.net/DTD/sodipodi-0.dtd"
   xmlns:inkscape="http://www.inkscape.org/namespaces/inkscape"
   width="414.48257pt"
   height="292.80002pt"
   viewBox="0 0 414.48258 292.80002"
   version="1.1"
   id="svg2"
   inkscape:version="0.92.0 r15299"
   sodipodi:docname="QVC HD.svg">
  <metadata
     id="metadata43">
    <rdf:RDF>
      <cc:Work
         rdf:about="">
        <dc:format>image/svg+xml</dc:format>
        <dc:type
           rdf:resource="http://purl.org/dc/dcmitype/StillImage" />
        <dc:title></dc:title>
      </cc:Work>
    </rdf:RDF>
  </metadata>
  <defs
     id="defs41">
    <clipPath
       clipPathUnits="userSpaceOnUse"
       id="clipPath434">
      <path
         d="M 0,0 H 419.528 V 595.276 H 0 Z"
         id="path436"
         inkscape:connector-curvature="0" />
    </clipPath>
    <clipPath
       clipPathUnits="userSpaceOnUse"
       id="clipPath458">
      <path
         d="M 0,0 H 419.528 V 595.276 H 0 Z"
         id="path460"
         inkscape:connector-curvature="0" />
    </clipPath>
  </defs>
  <sodipodi:namedview
     pagecolor="#ffffff"
     bordercolor="#666666"
     borderopacity="1"
     objecttolerance="10"
     gridtolerance="10"
     guidetolerance="10"
     inkscape:pageopacity="0"
     inkscape:pageshadow="2"
     inkscape:window-width="1920"
     inkscape:window-height="1017"
     id="namedview39"
     showgrid="false"
     fit-margin-top="0"
     fit-margin-left="0"
     fit-margin-right="0"
     fit-margin-bottom="0"
     inkscape:zoom="0.88302116"
     inkscape:cx="192.03918"
     inkscape:cy="43.774566"
     inkscape:window-x="-8"
     inkscape:window-y="-8"
     inkscape:window-maximized="1"
     inkscape:current-layer="svg2" />
  <g
     id="g4171"
     transform="matrix(10.529485,0,0,10.529485,-4618.8502,-4035.8661)">
    <g
       id="g4154">
      <path
         d="m 461.1587,404.48976 -7.5475,-1.22875 10e-4,10e-4 3.30375,4.37125 2.62,3.46625 4.27,-3.25375 -2.6475,-3.35625 z"
         style="fill:#f6988d;fill-opacity:1;fill-rule:nonzero;stroke:none"
         id="path2054"
         inkscape:connector-curvature="0" />
      <g
         id="g2060"
         transform="matrix(1.25,0,0,-1.25,454.29345,408.54501)">
        <path
           inkscape:connector-curvature="0"
           id="path2062"
           style="fill:#b95858;fill-opacity:1;fill-rule:nonzero;stroke:none"
           d="M 0,0 C 0.716,0.173 1.415,0.42 2.072,0.732 L -0.29,3.857 -0.571,4.228 Z" />
      </g>
      <g
         id="g2064"
         transform="matrix(1.25,0,0,-1.25,456.15695,396.95238)">
        <path
           inkscape:connector-curvature="0"
           id="path2066"
           style="fill:#c95759;fill-opacity:1;fill-rule:nonzero;stroke:none"
           d="M 0,0 -0.179,0.138 -0.304,0.235 -0.409,0.114 c -0.181,-0.212 -0.399,-0.315 -0.666,-0.315 -0.245,0 -0.44,0.074 -0.599,0.227 -0.158,0.156 -0.235,0.343 -0.235,0.572 0,0.149 0.036,0.286 0.107,0.409 0.069,0.118 0.164,0.213 0.294,0.287 0.13,0.071 0.266,0.108 0.418,0.108 0.139,0 0.267,-0.029 0.382,-0.084 0.115,-0.055 0.212,-0.135 0.293,-0.242 L -0.311,0.942 -0.179,1.046 0,1.182 0.128,1.281 0.034,1.413 c -0.121,0.169 -0.283,0.307 -0.478,0.404 -0.197,0.096 -0.408,0.142 -0.649,0.142 -0.393,0 -0.725,-0.128 -0.989,-0.385 -0.266,-0.26 -0.399,-0.581 -0.399,-0.957 0,-0.357 0.111,-0.666 0.33,-0.916 0.256,-0.301 0.615,-0.452 1.061,-0.452 0.235,0 0.444,0.045 0.637,0.135 0.193,0.088 0.356,0.215 0.484,0.381 l 0.103,0.132 z" />
      </g>
      <g
         id="g2068"
         transform="matrix(1.25,0,0,-1.25,447.94895,395.20776)">
        <path
           inkscape:connector-curvature="0"
           id="path2070"
           style="fill:#c95759;fill-opacity:1;fill-rule:nonzero;stroke:none"
           d="M 0,0 C 0.435,0 0.79,-0.355 0.79,-0.793 0.79,-1.23 0.435,-1.585 0,-1.585 c -0.435,0 -0.788,0.355 -0.788,0.792 C -0.788,-0.355 -0.435,0 0,0 m 1.017,-1.682 c 0.215,0.246 0.336,0.561 0.336,0.889 0,0.747 -0.606,1.357 -1.353,1.357 -0.746,0 -1.353,-0.61 -1.353,-1.357 0,-0.749 0.607,-1.356 1.353,-1.356 0.201,0 0.397,0.047 0.578,0.134 l 0.195,-0.247 h 0.705 z" />
      </g>
      <g
         id="g2072"
         transform="matrix(1.25,0,0,-1.25,452.20195,394.57388)">
        <path
           inkscape:connector-curvature="0"
           id="path2074"
           style="fill:#c95759;fill-opacity:1;fill-rule:nonzero;stroke:none"
           d="M 0,0 -0.662,-1.635 -1.336,0 h -0.607 l 1.132,-2.713 h 0.287 L 0.609,0 Z" />
      </g>
      <g
         id="g2076"
         transform="matrix(1.25,0,0,-1.25,461.0437,404.45563)">
        <path
           inkscape:connector-curvature="0"
           id="path2078"
           style="fill:#eb5d5e;fill-opacity:1;fill-rule:nonzero;stroke:none"
           d="M 0,0 -5.95,0.967 C -6.502,0.801 -7.087,0.708 -7.693,0.708 c -3.287,0 -5.958,2.679 -5.958,5.978 0,3.302 2.671,5.986 5.958,5.986 3.291,0 5.964,-2.684 5.964,-5.986 0,-1.307 -0.42,-2.514 -1.13,-3.499 l 3.75,-2.002 c 1.052,1.627 1.633,3.531 1.633,5.501 0,5.644 -4.583,10.245 -10.217,10.245 -5.633,0 -10.215,-4.601 -10.215,-10.245 0,-5.646 4.582,-10.236 10.215,-10.236 1.513,0 3.065,0.378 4.435,1.036 L -0.013,-0.018 0,0" />
      </g>
      <g
         id="g2080"
         transform="matrix(1.25,0,0,-1.25,453.60107,403.24863)">
        <path
           inkscape:connector-curvature="0"
           id="path2082"
           style="fill:#c05255;fill-opacity:1;fill-rule:nonzero;stroke:none"
           d="m 0,0 0.565,-4.237 c 0.098,0.024 0.196,0.048 0.293,0.075 0.628,0.171 1.24,0.398 1.821,0.674 L 0,0" />
      </g>
      <g
         id="g2084"
         transform="matrix(1.25,0,0,-1.25,453.60195,403.24388)">
        <path
           inkscape:connector-curvature="0"
           id="path2086"
           style="fill:#f39e9f;fill-opacity:1;fill-rule:nonzero;stroke:none"
           d="m 0,0 4.748,-6.282 3.422,2.607 -2.121,2.69 z" />
      </g>
    </g>
  </g>
  <g
     id="g4508"
     transform="translate(-115.92588,-1.0817989e-6)"
     style="fill:#ffffff;fill-opacity:1">
    <path
       sodipodi:nodetypes="ccccccccccccc"
       d="m 411.24908,103.31328 h 13.17572 v 24.85342 h 25.50029 v -24.85342 h 13.27785 v 61.82714 H 449.92509 V 140.32104 H 424.4248 v 24.81938 h -13.17572 z"
       id="path25-8"
       inkscape:connector-curvature="0"
       style="opacity:1;fill:#ffffff;fill-opacity:1" />
    <path
       d="m 473.80889,103.31328 c 14.25677,0.0102 30.64385,-1.43106 43.18639,5.68563 13.20889,7.49477 16.84432,26.13187 10.09457,39.40799 -5.08233,9.99647 -15.89854,16.35864 -26.96426,16.61434 -8.76607,0.20256 -17.38124,0.1035 -26.3167,0.11916 m 12.93739,-49.46855 v 37.56952 c 7.2858,1.3e-4 15.56303,0.85271 21.89076,-2.96199 11.12793,-6.7085 10.83483,-25.96632 -0.62985,-32.12219 -6.09332,-3.27177 -14.09419,-2.49399 -21.26091,-2.48534 z"
       id="path29-3"
       inkscape:connector-curvature="0"
       style="opacity:1;fill:#ffffff;fill-opacity:1"
       sodipodi:nodetypes="cssscccssc" />
  </g>
</svg>
